src/actions/16/view-calendar-wedding-anniversary.svg

<svg version="1.1" viewBox="0 0 16 16" xmlns="http://www.w3.org/2000/svg">
 <defs>
  <style id="current-color-scheme" type="text/css">.ColorScheme-Text {
        color:#363636;
      }</style>
 </defs>
 <path d="m6.5 6.5c-1.3807 0-2.5 1.1193-2.5 2.5 0 1.3807 1.1193 2.5 2.5 2.5 0.34496-4.33e-4 0.6861-0.07225 1.002-0.21094 0.31465 0.13816 0.6544 0.20997 0.99805 0.21094 1.3807 0 2.5-1.1193 2.5-2.5 0-1.3807-1.1193-2.5-2.5-2.5-0.34496 4.326e-4 -0.6861 0.072251-1.002 0.21094-0.31465-0.13816-0.6544-0.20997-0.99805-0.21094zm0 1h0.00195c-0.32525 0.4325-0.50139 0.95885-0.50195 1.5 0.00113 0.54137 0.17796 1.0677 0.50391 1.5-0.0013 2e-6 -0.0026 2e-6 -0.00391 0-0.82842 0-1.5-0.67157-1.5-1.5s0.67157-1.5 1.5-1.5zm1.9961 0c0.0013-1.7e-6 0.0026-1.7e-6 0.00391 0 0.82843 0 1.5 0.67157 1.5 1.5s-0.67157 1.5-1.5 1.5h-0.00195c0.32525-0.4325 0.50138-0.95885 0.50195-1.5-0.0011264-0.54137-0.17796-1.0677-0.50391-1.5zm-0.99609 0.38477c0.31742 0.28391 0.4992 0.68937 0.5 1.1152-7.956e-4 0.42587-0.18258 0.83132-0.5 1.1152-0.31742-0.28391-0.4992-0.68937-0.5-1.1152 7.955e-4 -0.42587 0.18258-0.83132 0.5-1.1152z" class="ColorScheme-Text" fill="currentColor"/>
 <path d="m2 1c-1.108 0-2 0.892-2 2v10c0 1.108 0.892 2 2 2h11c1.108 0 2-0.892 2-2v-10c0-1.108-0.892-2-2-2zm0 3h11c0.554 0 1 0.446 1 1v8c0 0.554-0.446 1-1 1h-11c-0.554 0-1-0.446-1-1v-8c0-0.554 0.446-1 1-1z" class="ColorScheme-Text" fill="currentColor"/>
</svg>

<svg xmlns="http://www.w3.org/2000/svg" viewBox="0 0 16 16">
    <defs>
        <style id="current-color-scheme" type="text/css">
            .ColorScheme-Text{color:#050505;opacity:.7}
        </style>
    </defs>
    <path fill="currentColor" d="M6.5 6.5a2.5 2.5 0 1 0 1.002 4.79 2.5 2.5 0 0 0 .998.21 2.5 2.5 0 1 0-1.002-4.79A2.5 2.5 0 0 0 6.5 6.5zm0 1h.002A2.5 2.5 0 0 0 6 9a2.5 2.5 0 0 0 .504 1.5H6.5a1.5 1.5 0 0 1 0-3zm1.996 0H8.5a1.5 1.5 0 1 1 0 3h-.002A2.5 2.5 0 0 0 9 9a2.5 2.5 0 0 0-.504-1.5zm-.996.385c.317.284.5.69.5 1.115a1.5 1.5 0 0 1-.5 1.115A1.5 1.5 0 0 1 7 9a1.5 1.5 0 0 1 .5-1.115z" class="ColorScheme-Text"/>
    <path fill="currentColor" d="M2 1C.892 1 0 1.892 0 3v10c0 1.108.892 2 2 2h11c1.108 0 2-.892 2-2V3c0-1.108-.892-2-2-2zm0 3h11c.554 0 1 .446 1 1v8c0 .554-.446 1-1 1H2c-.554 0-1-.446-1-1V5c0-.554.446-1 1-1z" class="ColorScheme-Text"/>
</svg>
